img/ui/icons/car.svg.svg

<svg width="25" height="25" viewBox="0 0 25 25" fill="none" xmlns="http://www.w3.org/2000/svg">
<path d="M2.75 12.8164L4.75 13.8164M21.75 13.3164L19.75 13.8164M8.25 18.3164L8.496 17.7024C8.861 16.7894 9.044 16.3324 9.425 16.0744C9.805 15.8164 10.297 15.8164 11.281 15.8164H13.219C14.203 15.8164 14.695 15.8164 15.075 16.0744C15.455 16.3324 15.639 16.7894 16.005 17.7024L16.25 18.3164M2.25 17.8164V20.6984C2.25 21.0774 2.49 21.4234 2.872 21.5924C3.119 21.7024 3.355 21.8164 3.641 21.8164H5.359C5.645 21.8164 5.881 21.7024 6.129 21.5924C6.509 21.4234 6.75 21.0774 6.75 20.6984V18.8164M17.75 18.8164V20.6984C17.75 21.0774 17.99 21.4234 18.372 21.5924C18.619 21.7024 18.855 21.8164 19.141 21.8164H20.859C21.145 21.8164 21.381 21.7024 21.629 21.5924C22.009 21.4234 22.25 21.0774 22.25 20.6984V17.8164M20.25 9.31641L21.25 8.81641M4.25 9.31641L3.25 8.81641M4.75 9.81641L5.838 6.55141C6.278 5.23141 6.498 4.57141 7.022 4.19441C7.546 3.81741 8.242 3.81641 9.633 3.81641H14.867C16.258 3.81641 16.954 3.81641 17.477 4.19441C18.002 4.57141 18.222 5.23141 18.662 6.55141L19.75 9.81641" stroke="#0F0F0F" stroke-width="1.5" stroke-linecap="round" stroke-linejoin="round"/>
<path d="M4.75 9.81641H19.75C20.707 10.8304 22.25 12.2414 22.25 13.8164V17.2864C22.25 17.8564 21.87 18.3364 21.367 18.4034L18.25 18.8164H6.25L3.133 18.4034C2.63 18.3384 2.25 17.8584 2.25 17.2864V13.8164C2.25 12.2414 3.793 10.8304 4.75 9.81641Z" stroke="#0F0F0F" stroke-width="1.5" stroke-linecap="round" stroke-linejoin="round"/>
</svg>

<svg width="25" height="25" fill="none" xmlns="http://www.w3.org/2000/svg"><path d="m2.75 12.816 2 1m17-.5-2 .5m-11.5 4.5.246-.614c.365-.913.548-1.37.929-1.628.38-.258.872-.258 1.856-.258h1.938c.984 0 1.476 0 1.856.258.38.258.564.715.93 1.628l.245.614m-14-.5v2.882c0 .38.24.725.622.894.247.11.483.224.769.224h1.718c.286 0 .522-.114.77-.224.38-.169.621-.515.621-.894v-1.882m11 0v1.882c0 .38.24.725.622.894.247.11.483.224.769.224h1.718c.286 0 .522-.114.77-.224.38-.169.621-.515.621-.894v-2.882m-2-8.5 1-.5m-17 .5-1-.5m1.5 1 1.088-3.265c.44-1.32.66-1.98 1.184-2.357.524-.377 1.22-.378 2.611-.378h5.234c1.391 0 2.087 0 2.61.378.525.377.745 1.037 1.185 2.357l1.088 3.265" stroke="#0F0F0F" stroke-width="1.5" stroke-linecap="round" stroke-linejoin="round"/><path d="M4.75 9.816h15c.957 1.014 2.5 2.425 2.5 4v3.47c0 .57-.38 1.05-.883 1.117l-3.117.413h-12l-3.117-.413c-.503-.065-.883-.545-.883-1.117v-3.47c0-1.575 1.543-2.986 2.5-4Z" stroke="#0F0F0F" stroke-width="1.5" stroke-linecap="round" stroke-linejoin="round"/></svg>
